X: 2
T: Maudabawn Chapel
R: reel
M: 4/4
L: 1/8
K: Gmaj
|:G3 D E2 DB,|G,A,B,D EGDB,|G,A,B,D GABd|gabg eaaf|[1gbag efge|dged B^cde|g2 fa gedB|AcBA GEED:|[2 ~g3a b/2a/2g a/2g/2f | gfed eage| dged BedB| AGBA GEED||


Tune 302	Setting 302

